!! "Popular Ch'oyong", (popular song) No. 20 from Jonathan Condit,
!! 'Music of the Korean Renaissance; Songs and dances of the fifteenth century',
!! London: Cambridge University Press, 1984, ISBN 0 521 24399 8; pp.87-88
!! pluck voice
!!  str.
**kern	**kern
*M6/8	*M6/8
=1	=1
4r	4r
8F	8f
4F	{4f
8E-	8e-}
=2	=2
4.F	4.f
4G	[4.g
8G	.
=3	=3
4G	4g]
8B-	8b-
4B-	{4b-
8G	8g}
=4	=4
4.F	{4.f
4E-	[4.e-
8E-	.
=5	=5
4E-	4e-}]
8F	8f
4G	4g
8F	8f
=6	=6
8E-	{8e-
8F	8f
{24G	24g
12F}	12f
4E-	4e-
8C	8c}
=7	=7
4BB-	4B-
8B-	8r
4E-	4.r
8B-	.
=8	=8
4.B-	2.r
4B-	.
8B-	.
=9	=9
4B-	4r
8c	8cc
4f	{4ff
8e-	8ee-}
=10	=10
4c	{4cc
8e-	8ee-}
4c	[4.cc
8c	.
=11	=11
4c	4cc]
8B-	8b-
4B-	4.b-
8B-	.
=12	=12
4c	8cc
.	8cc
8B-	8b-
8G	8g
8c	{8cc
{24B-	24b-
12G}	12g
=13	=13
4B-	4b-}
8B-	8r
4E-	4.r
8B-	.
=14	=14
4.B-	2.r
4B-	.
8B-	.
=15	=15
4B-	4r
8c	8cc
4B-	{4b-
{24c	24cc
12B-}	12b-}
=16	=16
4.G	4.g
4G	4g
8G	[8g
=17	=17
4G	4g]
8c	8cc
4e-	{4ee-
{24e-	24ee-
12c}	12cc}
=18	=18
4.B-	[{4.b-
4B-	4b-]
8G	8g
=19	=19
4F	4f}
8c	8cc
4B-	{4b-
8G	8g}
=20	=20
8F	8f
4G	{4g
4f	4f
8E-	8e-
=21	=21
4F	4f}
8f	8ff
4f	{4ff
{24g	24gg
12f}	12ff}
=22	=22
4.e-	4.ee-
4c	4cc
8c	[8cc
=23	=23
4c	4cc]
8c	8cc
4e-	{4ee-
{24e-	24ee-
12c}	12cc}
=24	=24
4.B-	[{4.b-
4B-	4b-]
8G	8g
=25	=25
4F	4f
8c	8cc
4B-	{4b-
8G	8g}
=26	=26
8F	8f
4G	{4g
4F	4f
8E-	8e-
=27	=27
4.F	[2.f
4F	.
8F	.
=28	=28
4F	4f}]
8G	[{8g
4G	4g]
8F	8f}
=29	=29
4.B-	[2.b-
4B-	.
8B-	.
=30	=30
4B-	4b-]
{32c	{32cc
16.e-}	16ee-}
4c	{4cc
8B-	8b-}
=31	=31
8e-	8ee-
8c	{8cc
8B-	8b-}
4G	4g
8G	[8g
=32	=32
4G	4g]
{24c	{24cc
12B-}	12b-}
4G	4g
{24F	{24f
12E-}	12e-}
=33	=33
4F	{4.f
8F	.
4F	4f
8B-	[8b-
=34	=34
4B-	4b-}]
8F	[{8f
4F	4.f]
8F	.
=35	=35
8G	8g
8B-	8b-
{24G	24g
12F}	12f}
4E-	[4.e-
8E-	.
=36	=36
4E-	4e-]
8C	8c
4E-	4.e-
8E-	.
=37	=37
4.F	[2.f
4F	.
8F	.
=38	=38
4F	4f]
8c	8cc
{24B-	{24b-
[12G	[12g
8G}]	8g]
8F	8f}
=39	=39
8G	8g
8F	{8f
8E-	[8e-
4E-	4e-]
8C	8c}
=40	=40
4.BB-	[2.B-
4B-	.
8B-	.
=41	=41
4B-	4B-]
8G	[{8g
4G	4g]
8F	8f}
=42	=42
4.B-	[2.b-
4B-	.
8B-	.
=43	=43
4B-	4b-]
8e-	8ee-
4c	{4cc
8B-	8b-}
=44	=44
8e-	8ee-
8c	{8cc
8B-	8b-}
4G	[4.g
8G	.
=45	=45
4G	4g]
8C	8c
4E-	4.e-
8E-	.
=46	=46
4.F	[2.f
4F	.
8F	.
=47	=47
4F	4f]
8B-	8r
4E-	4.r
8B-	.
=48	=48
4.B-	2.r
4B-	.
8B-	.
=49	=49
4B-	4r
====	====
*-	*-
